src/pos-icons/vector-arrange-below.svg

<svg height="24" viewBox="0 0 24 24" width="24" xmlns="http://www.w3.org/2000/svg"><path d="m20 22c1.11 0 2-.89 2-2v-11c0-1.11-.89-2-2-2-3.67 0-7.33 0-11 0-1.11 0-2 .89-2 2v11c0 1.11.89 2 2 2zm0-2h-11v-11h11zm-15-4v-2h-2v-11h11v2h2v-2c0-1.11-.89-2-2-2h-11c-1.11 0-2 .89-2 2v11c0 1.11.89 2 2 2z"/></svg>

<?xml version="1.0" encoding="UTF-8"?><!DOCTYPE svg PUBLIC "-//W3C//DTD SVG 1.1//EN" "http://www.w3.org/Graphics/SVG/1.1/DTD/svg11.dtd"><svg xmlns="http://www.w3.org/2000/svg" xmlns:xlink="http://www.w3.org/1999/xlink" version="1.1" id="mdi-vector-arrange-below" width="24" height="24" viewBox="0 0 24 24"><path d="M20,22C21.11,22 22,21.11 22,20V9C22,7.89 21.11,7 20,7C16.33,7 12.67,7 9,7C7.89,7 7,7.89 7,9C7,12.67 7,16.33 7,20C7,21.11 7.89,22 9,22H20M20,20H9V9H20V20M5,16V14H3V3H14V5H16V3C16,1.89 15.11,1 14,1H3C1.89,1 1,1.89 1,3V14C1,15.11 1.89,16 3,16H5Z" /></svg>
